!!!OTL: D' Mensterlid (281a), S. 593f
!!!id: T0471
**kern
*clefG2
*k[b-]
*F:
{4f
=1
4f
4c
4a
=2
4a
4f
8.cc
16cc
=3
4.cc
8b-
4a
=4
4a
4g}
=5
{4f
=6
4f
4c
4a
=7
4a
4f
8.cc
16cc
=8
4.cc
8b-
4a
=9
4a
4g}
=10
{8.ee
16dd
=11
8.cc
16cc
8.cc
16f
8.f
16f
=12
4f
4f}
=13
{8.ee
16dd
=14
8.cc
16cc
8.cc
16f
8.f
16f
=15
4f
4f}
=16
{8.f
16a
=17
8.cc
16cc
8.cc
16cc
8.dd
16dd
=18
4cc
4cc}
=19
{8.a
16a
=20
4b-
4b-
4dd
=21
4cc}
4r
=22
{8.a
16a
=23
4cc
4cc
4b-
=24
4a}
4r
==
*-
!!!minrhy: 16
!!!meters: 3/4 ]  ZZ[7
!!!cut: D' Mensterlid (281a), S. 593f
!!!reg: Luxemburg
!!!trd: Singendes Volk, Esch-Alzette, 1937 posth.
!!!rhy1: X__  X__X__X__  X__X__X_.X  X__.X_X__  X__X__
!!!rhy2: X__  X__X__X__  X__X__X_.X  X__.X_X__  X__X__
!!!key: T0471  16  F 3/4 ]  ZZ[7
!!!mod: HEPTATONIK IONISCH]  AMBITUS[10
!!!kad: 2211553
!!!akz: 1353_1353_51_51_55_45_53_
!!!fot: 'a__a__b__b__c__d__e__
!!!for: 'a__a__b__b__b__aw_aw_
!!!fok: '^a_^a_\__\__/__/__^__
!! PHRAS[AUFTAKTIG]
!!!fkt: ???
!!!bem1: Reuland, hhh Hary Ernzen, 1910;
!!!bem2: (281b)- Roth bei Vianden, fff Mergen, 10.2.1924
!! THILL; Mathias
!! PR[42] 2K[8] 2G[20] 3K[2] 3G[0] 4A[3] 4Ü[0] 5A[2] 6K[0] 6G[0]
!! 7K[0] 7G[0] 8A[0] MEHR[0] SI[34] ABS[65] SR[28] SP[6]
!! ST[22] 2k[3] 2g[9] 3k[6] 3g[2] 4d[0] 4ü[0] 5d[5] 6k[0] 6g[0]
!! 7k[0] 7g[0] 8d[0] mehr[0] si[25] dm[+9] sr[12] sp[12]
!! 1F[71] 2F[29] 3F[0] 4F[0] LF[0] 2P[0] 3P[0] 4P[0] TRI[0] DF[2] AB[68]
!! TF[0] U3K[0] U3[0] U4[0] U4Ü[0] U5[0] U6K[0] U6[0] U7K[0] U7[0]
!! N1[11] N2K[0] N2[8] N3K[0] N3[12] N4[14] N4Ü[0] N5[35] N6K[0] N6[12]
!!!n7k: 0] N7[3] O1[6] O2K[0] O2[0] O3K[0] O3[0] HÖ[0
